!!!!SEGMENT: pl-kk--kk-i-389--010-004_anonim--missa-no-10-graduale-alleluia-dei-genitrix.krn
!!!cenid: 17xx:2525
!!!COM: Anonim
!!!COM-rismID: pe30004985
!!!CDT:
!!!CNT:
!!!OPR: [Missa] No. 10.
!!!OTL: Graduale/Alleluia. Dei Genitrix
!!!OMV: 004
!!!PDT:
!!!AGN: Sacred; Mass
!!!YEC: Copyright 2022 Narodowy Instytut Fryderyka Chopina (https://polishscores.org)
!!!YEM: License CC-BY-4.0 (https://creativecommons.org/licenses/by/4.0)
!!!SMS-siglum: PL-Kk
!!!SMS-shelfmark: Kk.I.389
!!!SMS-variant:
!!!SMS-altvar:
!!!SMS-shelfwork: 010-004 M
!!!NIFC-rismSourceID: 1001146182
!!!NIFC-rismChildID: 1001147254
!!!NIFC-islandoraID: pl-kk:6976
!!!URL-pdf-islandora: https://repozytorium.nifc.pl/islandora/object/pl-kk%3A6976/datastream/PDF/view
!!!URL-scan: https://polish.musicsources.pl/pl/lokalizacje/galeria/rekopisy/5999/1 @EN{Scan on Polish Music Sources Website} @PL{Skany w portalu Dziedzictwo Muzyki Polskiej w otwartym dostępie}
!!!IIIF:
!!!ONB-nifc: UWAGA: S – skan 17-18, A – 36-37, T – 55-56, B – 74-75. Części Mszy: Rorate, Kyrie, Gloria, Graduale, Sanctus, Benedictus, Agnus, Dona.
!!!AIN: 1 alto 1 bass 1 soprn 1 tenor
!!!key:
**kern	**text	**kern	**text	**kern	**text	**kern	**text
*part4	*part4	*part3	*part3	*part2	*part2	*part1	*part1
*staff4	*staff4	*staff3	*staff3	*staff2	*staff2	*staff1	*staff1
*I"Basso.	*	*I"Tenore.	*	*I"Alto.	*	*I"Soprano.	*
*I'B	*	*I'T	*	*I'A	*	*I'S	*
*ICvox	*	*ICvox	*	*ICvox	*	*ICvox	*
*Ibass	*	*Itenor	*	*Ialto	*	*Isoprn	*
*clefF4	*	*clefC4	*	*clefC3	*	*clefC1	*
*k[b-]	*	*k[b-]	*	*k[b-]	*	*k[b-]	*
*F:	*	*F:	*	*F:	*	*F:	*
*M3/2	*	*M3/2	*	*M3/2	*	*M3/2	*
=1	=1	=1	=1	=1	=1	=1	=1
*	*	*	*	*	*	*all\right:global	*
*2\right	*	*2\right	*	*2\right	*	*2\right	*
2F\	Al-	2c\	al-	2f\	Al-	2a\	Al-
2A\	.	2c\	-le-	2f\	-le-	2a\	-le-
2F\	-le-	2c\	-lu-	2f\	-lu-	2a\	-lu-
=2	=2	=2	=2	=2	=2	=2	=2
1c	-lu-	1.c	-ia	1f	-ia	1.g	-ia
2c\	-ia	.	.	2e\	al-	.	.
=3	=3	=3	=3	=3	=3	=3	=3
2A\	al-	2c\	al-	2f\	.	2cc\	Al-
2B-\	.	2d\	.	2d\	.	1b-	-le-
2G\	-le-	2B-\	-le-	2e\	.	.	.
=4	=4	=4	=4	=4	=4	=4	=4
2F\	-lu-	2c\	-lu-	2f\	-le-	2a\	-lu-
2G\	.	2B-\	.	2d\	.	2dd\	-ia,
2E\	.	2G/	-ia	2e\	-lu-	2cc#X\	Al-
=5	=5	=5	=5	=5	=5	=5	=5
2D\	-ia	1.A	al-	1f	-ia	1dd	-le-
2A\	al-	.	.	.	.	.	.
2AA/	.	.	.	2e\	.	2cc#X\	-lu-
!LO:LB:g=original	!	!	!	!	!	!	!
=6	=6	=6	=6	=6	=6	=6	=6
2D\	-le-	1A	.	2f#X\	Al-	1dd	-ia,
1F	-lu-	.	.	2fn\	-le-	.	.
.	.	2A\	-le-	2f\	-lu-	2ccn\	Al-
!	!	!LO:LB:g=original	!	!LO:LB:g=original	!	!	!
=7	=7	=7	=7	=7	=7	=7	=7
2A\	-ia	2c\	-lu-	2f\	-ia,	2cc\	.
2B-\	al-	1B-X	.	2d\	al-	2dd\	.
2G\	.	.	.	2e\	.	2b-X\	.
!	!	!	!	!	!	!LO:LB:g=original	!
=8	=8	=8	=8	=8	=8	=8	=8
2F\	-le-	2A\	-ia	1.f	-le-	2cc\	-le-
2A\	.	2c\	al-	.	.	2a\	.
2F\	-lu-	2A/	.	.	.	2cc\	.
=9	=9	=9	=9	=9	=9	=9	=9
1.B-	-ia	1B-	.	1.f	.	2cc\	.
.	.	.	.	.	.	1b-X	-lu-
.	.	2d\	.	.	.	.	.
=10	=10	=10	=10	=10	=10	=10	=10
1c	al-	2d\	-le-	2f\	-lu-	1g	-ia
.	.	1c	.	2e\	-ia	.	.
2A\	.	.	.	2f\	Al-	2cc\	Al-
=11	=11	=11	=11	=11	=11	=11	=11
2B-\	-le-	2d\	.	1f	-le-	4b-\	-le-
.	.	.	.	.	.	4a\	.
2c\	.	1c	-lu-	.	.	1g	-lu-
2C/	-lu-	.	.	2e\	-lu-	.	.
=12	=12	=12	=12	=12	=12	=12	=12
2F\	-ia.	2c\	-ia,	2f\	-ia.	2a\	-ia
2D\	De-	2d\	De-	2f\	De-	2dd\	De-
2D\	-i	2A\	-i	2f\	-i	2dd\	-i
=13	=13	=13	=13	=13	=13	=13	=13
2A\	Ge-	1.A	Ge-	1e	Ge-	1cc#X	Ge-
!LO:LB:g=original	!	!	!	!	!	!	!
2G\	.	.	.	.	.	.	.
2F\	.	.	.	2f\	.	2dd\	.
=14	=14	=14	=14	=14	=14	=14	=14
2E\	.	2G/	.	2g\	.	2cc#X\	.
2D\	.	1A	.	2f\	.	2dd\	.
2C#X/	.	.	.	2e\	.	2ee\	.
!	!	!LO:LB:g=original	!	!LO:LB:g=original	!	!	!
=15	=15	=15	=15	=15	=15	=15	=15
1D	.	1A	.	1f	.	1dd	.
2D\	-ni-	2A\	-ni-	2f\	-ni-	2dd\	-ni-
=16	=16	=16	=16	=16	=16	=16	=16
2AA/	-trix	2A\	-trix	2e\	-trix,	2cc#X\	-trix
!	!	!	!	!	!	!LO:LB:g=original	!
4A\	in-	2A\	in-	2e\	in-	2r	.
4G\	.	.	.	.	.	.	.
4F\	-ter-	2A\	-ter-	2f\	-ter-	[y2dd\	in-
4E\	.	.	.	.	.	.	.
=17	=17	=17	=17	=17	=17	=17	=17
!	!	!	!	!	!	!LO:N:xstem:cue	!
2D\	-ce-	2A\	-ce-	2f\	-ce-	4dd\]	.
.	.	.	.	.	.	4cc\	-ter-
4G\	.	1Bn	.	2.g\	.	4bn\	.
4F\	.	.	.	.	.	4a\	.
4E\	.	.	.	.	.	4g\	-ce-
4D\	.	.	.	4f\	.	[y4cc\	.
=18	=18	=18	=18	=18	=18	=18	=18
!	!	!	!	!	!	!LO:N:xstem:cue	!
2C/	.	2G/	.	2e\	-de,	4cc\]	.
.	.	.	.	.	.	4bn\	.
4F\	.	1A	.	2.f\	in-	4a\	.
4E\	.	.	.	.	.	4g#X\	.
4D\	.	.	.	.	.	2a\	-de,
4C\	.	.	.	4e\	-ter-	.	.
!LO:LB:g=original	!	!	!	!	!	!	!
=19	=19	=19	=19	=19	=19	=19	=19
2.BBn/	.	4Bn\	.	2d\	-ce-	2a\	in-
.	.	4c\	.	.	.	.	.
.	.	4d\	.	2d\	-de	4bn\	.
4AA/	.	4c\	.	.	.	4cc\	.
2GG#X/	-de	2B\	.	2e\	pro	2dd\	-ter-
=20	=20	=20	=20	=20	=20	=20	=20
2.AA/	in-	2Bn\	.	1e	no-	2dd\	-ce-
.	.	2A\	-de	.	.	1cc	.
!LO:SIC:v:o=4BB-/	!	!	!	!	!	!	!
4B	.	.	.	.	.	.	.
2C/	-ter-	2e\	pro	2e\	-bis	.	.
=21	=21	=21	=21	=21	=21	=21	=21
2D\	-ce-	1.d	no-	2f\	pro	2bn\	.
2E\	.	.	.	2e\	.	2g#X\	-de
2F\	-de	.	.	2d\	.	2a\	pro
!	!	!LO:LB:g=original	!	!	!	!	!
=22	=22	=22	=22	=22	=22	=22	=22
2D\	pro	2d\	.	2f\	no-	4a\	.
.	.	.	.	.	.	4bn\	.
!	!	!	!	!	!	!LO:LB:g=original	!
1E	no-	1Bn	.	1e	.	2a\	no-
.	.	.	.	.	.	2g#X\	.
!	!	!	!	!LO:LB:g=original	!	!	!
=23	=23	=23	=23	=23	=23	=23	=23
2AA/	-bis	2c\	-bis,	2e\	-bis	2a\	-bis
2F\	al-	2c\	al-	2f\	al-	2r	.
2F\	-le-	2c\	-le-	2f\	-le-	2a\	al-
=24	=24	=24	=24	=24	=24	=24	=24
2E\	-lu-	2c\	-lu-	2g\	-lu-	2cc\	-le-
2C/	.	2e\	.	2e\	.	2g\	.
2E\	.	2c\	-ia	2g\	-ia	2cc\	-lu-
=25	=25	=25	=25	=25	=25	=25	=25
1.F	-ia	1c	Al-	1.a	al-	2cc\	-ia,
.	.	.	.	.	.	2a\	al-
.	.	2A\	-le-	.	.	2dd\	.
=26	=26	=26	=26	=26	=26	=26	=26
1.G	al-	2B-X\	-lu-	1.g	.	2dd\	-le-
.	.	2G/	-ia	.	.	2b-X\	.
.	.	2B-\	al-	.	.	2een\	-lu-
!LO:LB:g=original	!	!	!	!	!	!	!
=27	=27	=27	=27	=27	=27	=27	=27
1.A	-le-	2c\	-le-	1e	-le-	2ee\	-ia,
.	.	2A\	.	.	.	2cc\	al-
.	.	2c\	-lu-	2c\	-lu-	2ff\	.
=28	=28	=28	=28	=28	=28	=28	=28
1B-	-lu-	1.d	-ia	1.f	-ia	1dd	-le-
2d\	-ia	.	.	.	.	2b-X\	-lu-
!	!	!LO:LB:g=original	!	!	!	!LO:LB:g=original	!
=29	=29	=29	=29	=29	=29	=29	=29
2B-\	al-	2d\	al-	1f	al-	4b-\	-ia,
.	.	.	.	.	.	4a\	al-
2c\	-le-	1c	.	.	.	1g	-le-
2C/	-lu-	.	.	2e\	-le-	.	.
=30	=30	=30	=30	=30	=30	=30	=30
2F\	-ia	2c\	-le-	2f\	-luia	2a\	-lu-
2B-\	al-	2d\	.	2f\	al-	2b-X\	-ia
2A\	-le-	2c\	.	2f\	-le-	2cc\	al-
=31	=31	=31	=31	=31	=31	=31	=31
1.B-	-lu-	1.d	-lu-	1.f	-lu-	1.b-	-lelu-
=32	=32	=32	=32	=32	=32	=32	=32
!LO:N:vis=0	!	!LO:N:vis=0	!	!	!	!	!
1.F	-ia.	1.c	-ia	1.f	-ia.	1.a	-ia
==	==	==	==	==	==	==	==
*-	*-	*-	*-	*-	*-	*-	*-
!!!system-decoration: [(s1,s2,s3,s4)]
!!!ENC: Anastazja Marusiak
!!!END: 2023-11-13
!!!YEM: Copyright © 2023 by [Copyright Holder]
!!!ENC: Leszek Kubiak
!!!END: 2024-01-22
